X:1
T:Kücken, 77.77 D
T:Kücken, 77.77 D
T:Friedrich Wilhelm Kücken (1810-1882)
T:Public Domain Courtesy of the Cyber Hymnal™
C:Friedrich Wilhelm Kücken (1810-1882)
Z:Public Domain
Z:Courtesy of the Cyber Hymnal™
%%score ( 1 2 ) ( 3 4 )
L:1/8
Q:1/4=125
M:3/4
K:F
V:1 treble 
V:2 treble 
V:3 bass 
V:4 bass 
V:1
 [FA]4 [EG]2 | F4 [FA]2 | (c3 d) [Ec]2 | [FA]4 z2 | [EA]4 [EG]2 | [DF]4 (FG) | [FA]4 [EG]2 | %7
 F4 z2 | [Ec]4 [EG]2 (A3 d) [Fc]2 | [Ec]4 [EG]2 | [FA]4 z2 | [Ff]4 [Fd]2 | [Fc]4 (dc) | %13
 (c2 G2) [EA]2 | F4 z2 |] x6 |] %16
V:2
 x6 | F4 x2 | E4 x2 | x6 | x6 | x4 F2 | x6 | F4 x2 | x6 F4 x2 | x6 | x6 | x6 | x4 F2 | E4 x2 | %14
 F4 x2 |] x6 |] %16
V:3
 [F,C]4 [F,B,]2 | [F,A,]4 [F,C]2 | [G,C]4 [C,C]2 | [F,C]4 z2 | [A,,^C]4 [^C,A,]2 | %5
 [D,A,]4 (A,=B,) | (C2 F,2) [C,B,]2 | [F,A,]4 z2 | [C,G,]4 [C,C]2 x6 | (C3 B,) [F,A,]2 | %10
 [C,G,]4 [C,C]2 | [F,C]4 z2 | [B,,D]4 [D,B,]2 | [F,A,]4 [F,_A,]2 | (G,2 B,2) [C,C]2 |] %15
 [F,A,]4 z2 |] %16
V:4
 x6 | x6 | x6 | x6 | x6 | x4 D,2 | C,4 x2 | x6 | x12 | F,4 x2 | x6 | x6 | x6 | x6 | C,4 x2 |] x6 |] %16

